svg/fluentui-system-icons/ic_fluent_projection_screen_dismiss_24_filled.svg

<svg width="24" height="24" viewBox="0 0 24 24" fill="none" xmlns="http://www.w3.org/2000/svg">
<path d="M23 6.5C23 9.53757 20.5376 12 17.5 12C14.4624 12 12 9.53757 12 6.5C12 3.46243 14.4624 1 17.5 1C20.5376 1 23 3.46243 23 6.5ZM15.8536 4.14645C15.6583 3.95118 15.3417 3.95118 15.1464 4.14645C14.9512 4.34171 14.9512 4.65829 15.1464 4.85355L16.7929 6.5L15.1464 8.14645C14.9512 8.34171 14.9512 8.65829 15.1464 8.85355C15.3417 9.04882 15.6583 9.04882 15.8536 8.85355L17.5 7.20711L19.1464 8.85355C19.3417 9.04882 19.6583 9.04882 19.8536 8.85355C20.0488 8.65829 20.0488 8.34171 19.8536 8.14645L18.2071 6.5L19.8536 4.85355C20.0488 4.65829 20.0488 4.34171 19.8536 4.14645C19.6583 3.95118 19.3417 3.95118 19.1464 4.14645L17.5 5.79289L15.8536 4.14645ZM17.5 13C18.7886 13 19.9897 12.625 21 11.9782V13.25C21 15.3211 19.3211 17 17.25 17H12.75V19.5H16.25C16.6642 19.5 17 19.8358 17 20.25C17 20.6642 16.6642 21 16.25 21H7.75C7.33579 21 7 20.6642 7 20.25C7 19.8358 7.33579 19.5 7.75 19.5H11.25V17H6.75C4.67893 17 3 15.3211 3 13.25V5.91465C2.4174 5.70873 2 5.15311 2 4.5C2 3.67157 2.67157 3 3.5 3H12.0218C11.375 4.0103 11 5.21136 11 6.5C11 10.0899 13.9101 13 17.5 13Z" fill="#212121"/>
</svg>

<svg xmlns="http://www.w3.org/2000/svg" width="24" height="24"><path d="M23 6.5a5.5 5.5 0 1 1-11 0 5.5 5.5 0 0 1 11 0Zm-7.146-2.354a.5.5 0 0 0-.708.708L16.793 6.5l-1.647 1.646a.5.5 0 0 0 .708.708L17.5 7.207l1.646 1.647a.5.5 0 0 0 .708-.708L18.207 6.5l1.647-1.646a.5.5 0 0 0-.708-.708L17.5 5.793l-1.646-1.647ZM17.5 13a6.47 6.47 0 0 0 3.5-1.022v1.272A3.75 3.75 0 0 1 17.25 17h-4.5v2.5h3.5a.75.75 0 0 1 0 1.5h-8.5a.75.75 0 0 1 0-1.5h3.5V17h-4.5A3.75 3.75 0 0 1 3 13.25V5.915A1.5 1.5 0 0 1 3.5 3h8.522A6.5 6.5 0 0 0 17.5 13Z"/></svg>
